X: 569
%
U:~=!turn!
U:k=!crescendo(!
U:m=!crescendo)!
U:t=!tenuto!
T: The Shakins o' the Pocky
C:J. Scott Skinner
O:Scotland
B:Keith Norman MacDonald : "The Skye collection of the best reels & strathspeys extant" : 1887
Z:Ralph Palmer
R:Strathspey
M:C
L:1/8
K:Bb
~t(B,>.D)t(F>.G) F<D B,>A | B>A k.G/.A/.B/.c/ d3 md | (te>.c)d>B c<A B>G | F<D {/D}(tB>.D) {/D}E2 C>D |
(tB,>.D)(tF>.G) F<D B,>A | B>A .G/.A/.B/.c/ d3 d | (te>.c)(td>.B) (tc>.A){/A}(tB>.G) | (G/F/).E/.D/ (F/E/)D/.C/ B,2- B, ||
f | {/a}Lb>f d<B g<e c>a | {/a}b>f e/d/c/B/ Lf3 a | b>f d<B g<ec>B | (tA>.B) (c<f) [D2B2] [DB]>a |
b>f d<B g<e c>a | {/a}(b>f) (e/d/).c/.B/ f2- f>e | (d>B)(e>c) d/c/B/A/ {/A}(tB>.G) | (G/F/).E/.D/ (F/E/).D/.C/ B,2- B, |]


